!!!!SEGMENT: pl-kk--kk-i-143_anonim--deus-tuorum-militum.krn
!!!cenid: 17xx:2659
!!!COM: Anonim
!!!COM-rismID: pe30004985
!!!CDT:
!!!CNT:
!!!OTL: Deus tuorum militum
!!!PDT:
!!!AGN: Sacred; Hymns
!!!YEC: Copyright 2022 Narodowy Instytut Fryderyka Chopina (https://polishscores.org)
!!!YEM: License CC-BY-4.0 (https://creativecommons.org/licenses/by/4.0)
!!!SMS-siglum: PL-Kk
!!!SMS-shelfmark: Kk.I.143
!!!SMS-variant:
!!!SMS-altvar:
!!!SMS-shelfwork: W
!!!NIFC-rismSourceID: 1001150580
!!!NIFC-rismChildID: 1001150580
!!!NIFC-islandoraID: pl-kk:3604
!!!URL-pdf-islandora: https://repozytorium.nifc.pl/islandora/object/pl-kk%3A3604/datastream/PDF/view
!!!URL-scan: https://polish.musicsources.pl/pl/lokalizacje/galeria/rekopisy/5770/4 @EN{Scan on Polish Music Sources Website} @PL{Skany w portalu Dziedzictwo Muzyki Polskiej w otwartym dostępie}
!!!IIIF:
!!!ONB-nifc: UWAGA: z uwzględnieniem partii B rip.
!!!AIN: 1 alto 1 bass 1 canto 1 organ 1 tenor
!!!key:
**kern	**text	**kern	**text	**kern	**text	**kern	**text	**kern	**text
*part5	*part5	*part4	*part4	*part3	*part3	*part2	*part2	*part1	*part1
*staff5	*staff5	*staff4	*staff4	*staff3	*staff3	*staff2	*staff2	*staff1	*staff1
*I"Baſso Ripieno	*	*I"Baſso.	*	*I"Tenore	*	*I"Alto.	*	*I"Canto	*
*I'B r	*	*I'B	*	*I'T	*	*I'A	*	*I'C	*
*Iorgan	*	*Ibass	*	*Itenor	*	*Ialto	*	*Icanto	*
*ICklav	*	*ICvox	*	*ICvox	*	*ICvox	*	*ICvox	*
*clefF4	*	*clefF4	*	*clefC4	*	*clefC3	*	*clefC1	*
*k[]	*	*k[]	*	*k[]	*	*k[]	*	*k[]	*
*a:	*	*a:	*	*a:	*	*a:	*	*a:	*
*M3/2	*	*M3/2	*	*M3/2	*	*M3/2	*	*M3/2	*
=1	=1	=1	=1	=1	=1	=1	=1	=1	=1
*2\right	*	*2\right	*	*2\right	*	*2\right	*	*2\right	*
2A\	DE-	2A\	DE-	2A/	DE-	2e\	DE-	2ccn\	DE-
2.D/	-US	2.D/	-US	2A/	-US	(4fn\	-US	(4dd\	-US
.	.	.	.	.	.	4e\)	.	4cc\)	.
.	.	.	.	2F/	tu-	(4d\	tu-	(4b\	Tu-
4D/	tu-	4D/	tu-	.	.	4c\)	.	4a\)	.
=2	=2	=2	=2	=2	=2	=2	=2	=2	=2
4E\	-o-	(4E\	-o-	2E/	-o-	2.B/	-o-	(2.g#X/	-o-
4F\	.	4F\	.	.	.	.	.	.	.
4E\	.	4E\	.	(2G#X/	.	.	.	.	.
4D\	.	4D\)	.	.	.	8c\L	.	8a/L	.
.	.	.	.	.	.	8d\J	.	8b/J)	.
2C/	.	2C/	.	2A/)	-rum	2e\	.	2cc\	.
=3	=3	=3	=3	=3	=3	=3	=3	=3	=3
2D,\	-rum	2D\	-rum	2A,/	.	2f,\	-rum	2b,\	-rum
2.E\	Mi-	2.E\	Mi-	2.A/	Mi-	2.e\	Mi-	2.bt\	Mi-
4E\	-li-	4E\	-li-	4G#X/	-li-	4e\	-li-	4b\	-li-
=4	=4	=4	=4	=4	=4	=4	=4	=4	=4
1.AA,	-tum	1.AA,	-tum	1.A,	-tum	1.e,	-tum	1.cc#X,	-tum
=5	=5	=5	=5	=5	=5	=5	=5	=5	=5
2A\	Sors,	2A\	Sors,	2A,\	Sors,	2e\	Sors,	2ccn\	Sors,
4A\	et	(4A\	et	2A\	et	2e\	et	2cc\	et
4G\	.	4G\)	.	.	.	.	.	.	.
2F#X\	Co-	2F#X\	Co-	2A\	Co-	2a\	Co-	2dd\	Co-
=6	=6	=6	=6	=6	=6	=6	=6	=6	=6
(2.G\	-ro-	(2.G\	-ro-	(2.Bn\	-ro-	(2.d\	-ro-	(2.b\	-ro-
4F\)	.	4F\	.	4A\)	.	8e\L	.	8cc\L	.
.	.	.	.	.	.	8f\J)	.	8dd\J)	.
2E\	.	2E\)	.	2G/	.	2g,\	-na,	4ee\	.
.	.	.	.	.	.	.	.	4e/	.
=7	=7	=7	=7	=7	=7	=7	=7	=7	=7
2E,\	-na,	2E,\	-na,	2B,\	-na	1e	prae-	2g/	-na
!LO:SIC:s=2Bn	!	!	!	!	!	!	!	!	!
2B\	prae-	2Bn\	prae-	2.B\	prae-	.	.	2.f#X/	prae-
2BB/	-mi-	2BB/	-mi-	.	.	2d#X\	-mi-	.	.
.	.	.	.	4B\	-mi-	.	.	4f#/	-mi-
=8	=8	=8	=8	=8	=8	=8	=8	=8	=8
1.E,	-um.	1.E,	-um.	1.B	-um ;	1.e,	-um;	1.g#X,	-um
*	*	*	*	*	*	*	*	*custos:cc	*
!	!	!	!	!	!	!	!	!LO:LB:g=original	!
=9	=9	=9	=9	=9	=9	=9	=9	=9	=9
2A\	lau-	2A\	lau-	2cn\	Lau-	2e\	Lau-	2ccn\	Lau-
2E\	-des	2E\	-des	2B\	-des	2g\	-des	2ee\	-des
4Fn\	.	4Fn\	ca-	(4A\	Ca-	2fn\	ca-	2dd\	Ca-
4G\	.	4G\	.	4B\)	.	.	.	.	.
*	*	*	*	*custos:c	*	*	*	*	*
!	!	!	!	!LO:LB:G=original	!	!	!	!	!
=10	=10	=10	=10	=10	=10	=10	=10	=10	=10
2.A\	ca-	2.A\	-nen-	(2.c\	-nen-	(4e\	-nen-	(4cc\	-nen-
.	.	.	.	.	.	4d\	.	4b\	.
.	.	.	.	.	.	4e\)	.	4cc\	.
8G\L	-nen-	8G\L	.	8B\L	.	4f\	.	4dd\)	.
8F\J	.	8F\J	.	8A\J)	.	.	.	.	.
2E\	.	2E\	.	2G/	.	2g\	-tes	2ee\	.
!	!	!LO:LB:g=original	!	!	!	!LO:LB:g=original	!	!	!
=11	=11	=11	=11	=11	=11	=11	=11	=11	=11
2F,\	-tes	2F\	-tes	2A/	-tes	2f\	Mar-	2dd,\	-tes
2A\	Mar-	2.A\	Mar-	2.A/	Mar-	2.e\	-ty-	2dd\	Mar-
2AA/	.	.	.	.	.	.	.	2cc#X\	-ty-
.	.	4AA/	-ty-	4A/	-ty-	4e\	.	.	.
!LO:LB:g=original	!	!	!	!	!	!	!	!	!
=12	=12	=12	=12	=12	=12	=12	=12	=12	=12
1D,	-ris,	1D,	-ris,	1A,	-ris,	1f#X,	-ris,	1dd,	-ris,
2D/	ab-	2D\	ab-	2A/	ab-	2f#X\	ab-	2dd\	ab-
=13	=13	=13	=13	=13	=13	=13	=13	=13	=13
2.D\	-sol-	2.D\	-sol-	(2.A/	-sol-	(2.f#X\	-sol-	2.dd\	-sol-
(4D\	.	4D\	.	4A/	.	4g\)	.	4ee\	.
4E\	.	4E\	.	4G/	.	4f#\	.	4dd\	.
4F\)	.	4F\	.	4A/)	.	4e\	.	4cc\	.
=14	=14	=14	=14	=14	=14	=14	=14	=14	=14
4G\	.	4G\	.	4Bn\	.	2d\	.	2b\	.
(4A\	.	4A\	.	4c\	.	.	.	.	.
4G\	.	4G\	.	4B\	.	2d,\	-ve,	2b,\	-ve
4F\	.	4F\	.	4A\	.	.	.	.	.
4E\)	.	4E\	.	2G/	.	2e\	ab-	2ccn\	ab-
4D\	.	4D\	.	.	.	.	.	.	.
=15	=15	=15	=15	=15	=15	=15	=15	=15	=15
2C/	.	2C/	.	2.G/	-ve	(2.e\	-sol-	(2.cc\	-sol-
4C,/	-ve,	4C,/	-ve,	.	.	.	.	.	.
4C/	ab-	4C/	ab-	4G/	ab-	4f\	.	4dd\)	.
4D\	-sol-	4D/	-sol-	4F/	-ſol-	4e\)	.	4cc\	.
4E\	.	4E/	.	4G/	.	4d\	.	4b\	.
=16	=16	=16	=16	=16	=16	=16	=16	=16	=16
(2.F\	.	2.F\	.	2.A\	.	2.cn/	.	2.a\	.
4G,\)	-ve	4G,\	-ve	4B,\	-ve	4B/	-ve	4g\	-ve
2A\	ne-	2A\	ne-	2c\	ne-	2A/	ne-	2cc\	ne-
=17	=17	=17	=17	=17	=17	=17	=17	=17	=17
2D,/	-xu	2D,\	-xu	(4d\	-xu	2fn,\	-xu	2a,\	-xu
.	.	.	.	4c\)	.	.	.	.	.
2.E\	Cri-	2.E\	Cri-	2.B\	Cri-	2.e\	Cri-	2a\	Cri-
.	.	.	.	.	.	.	.	2g#X\	-mi-
4E\	-mi-	4EE/	-mi-	4B\	-mi-	4e\	-mi-	.	.
=18	=18	=18	=18	=18	=18	=18	=18	=18	=18
!	!	!	!	!	!	!	!	!LO:N:vis=0.	!
0.AA;	-nis.	0.AA;	-nis.	0.c#X	-nis.	0.e	-nis.	0.a;	-nis.
*	*	*	*	*	*	*custos:f	*	*	*
!	!	!LO:LB:g=original	!	!LO:LB:g=original	!	!LO:LB:g=original	!	!LO:LB:g=original	!
=19||	=19||	=19||	=19||	=19||	=19||	=19||	=19||	=19||	=19||
*M3/2	*	*M3/2	*	*M3/2	*	*M3/2	*	*M3/2	*
2D/	Hic	2D\	Hic	2A\	Hic	2f#X\	Hic	2dd\	Hic
2D/	nem-	2D\	nem-	2A\	nem-	2f#\	nem-	2dd\	nem-
2D/	-pe	2D\	-pe	2A\	-pe	2f#\	-pe	2dd\	-pe
=20	=20	=20	=20	=20	=20	=20	=20	=20	=20
1G	mun-	1G	mun-	1Bn	mun-	1g	mun-	1dd	mun-
2G\	-di	2G\	-di	2B\	-di	2g\	-di	2dd\	-di
=21	=21	=22	=22	=22	=22	=22	=22	=22	=22
2.C/	gau-	2.C/	gau-	2.G/	gau-	2.e\	gau-	2.ccn\	gau-
4C/	-di-	4C/	-di-	4G/	-di-	4e\	-di-	4cc\	-di-
2C/	-a,	2C/	-a,	2G/	-a,	2e\	-a,	2cc\	-a
=22	=22	=23	=23	=23	=23	=23	=23	=23	=23
2F\	et	2F\	et	2A\	et	2fn\	et	4cc\	et
.	.	.	.	.	.	.	.	4b-X\	.
2A\	blan-	2A\	blan-	2c\	blan-	2f\	blan-	(4a\	blan-
.	.	.	.	.	.	.	.	4b-\)	.
2F\	-da	2F\	-da	2A\	-da	2f\	-da	2cc\	-da
=23	=23	=24	=24	=24	=24	=24	=24	=24	=24
1B-X	frau-	1B-X	frau-	(2Fn/	frau-	(2d\	frau-	(2dd\	frau-
.	.	.	.	2G/	.	2e\)	.	2b-X\	.
2A\	-du(m)	2A\	-du(m)	2A/)	.	2fn\	-dum	2cc,\)	-dum
!LO:LB:g=original	!	!	!	!	!	!	!	!	!
=24	=24	=25	=25	=25	=25	=25	=25	=25	=25
1G	pa-	1G	pa-	2d,\	-dum	1f	pa-	1b-X	pa-
.	.	.	.	2.G/	pa-	.	.	.	.
2G\	-bu-	2G\	-bu-	.	.	2e\	-bu-	2b-\	-bu-
.	.	.	.	4G/	-bu-	.	.	.	.
=25	=25	=26	=26	=26	=26	=26	=26	=26	=26
1.F,	-la	1.F	-la	1.A	-la	1.f	-la	1.cc,	-la
=26	=26	=27	=27	=27||	=27	=27||	=27	=27||	=27
00.r	.	00.r	.	2f\	im-	2a\	im-	2cc\	im-
.	.	.	.	2en\	-bu-	2g\	-bu-	2cc\	-bu-
.	.	.	.	2c\	-ta	2e\	-ta	4cc\	-ta
.	.	.	.	.	.	.	.	4b-X\	.
=27	=28	=28	=28	=28	=28	=28	=28	=28	=28
.	.	.	.	2.d\	fel-	(4f\	fel-	(4a\	fel-
.	.	.	.	.	.	4c\	.	4g\	.
.	.	.	.	.	.	4d\	.	4a\	.
.	.	.	.	8c\L	.	4e\)	.	4b\)	.
.	.	.	.	8B-X\J	.	.	.	.	.
.	.	.	.	2A/	.	2f\	.	2cc\	-le
=28	=29	=29	=29	=29	=29	=29	=29	=29	=29
.	.	.	.	2B-X\	-le	2f,\	-le	4b\	de-
.	.	.	.	.	.	.	.	4a\	.
.	.	.	.	2c\	de-	2f\	de-	2.g/	-pu-
.	.	.	.	2C/	-pu-	2e\	-pu-	.	.
.	.	.	.	.	.	.	.	4g/	.
!	!	!	!	!	!	!LO:LB:g=original	!	!	!
=29	=30	=30	=30	=30	=30	=30	=30	=30	=30
.	.	.	.	1.F	-tans	1.f,	-tans,	1.a,	-tans,
!	!	!	!	!LO:LB:g=original	!	!	!	!LO:LB:g=original	!
=30	=31	=31	=31	=31	=31	=31	=31	=31	=31
00.r	.	00.r	.	2F/	per-	2a\	per-	2cc\	per-
.	.	.	.	2A/	-ve-	2f\	-ve-	2a\	-ve-
.	.	.	.	2F/	-nit	2a\	-nit	2cc\	-nit
=31	=32	=32	=32	=32	=32	=32	=32	=32	=32
.	.	.	.	(2.B-X\	ad	2f\	ad	1dd	ad
.	.	.	.	.	.	(4e\	.	.	.
.	.	.	.	4A\)	.	4f\)	.	.	.
.	.	.	.	2G/	cae-	2g\	cae-	4een\	cae-
.	.	.	.	.	.	.	.	4dd\	.
=32	=33	=33	=33	=33	=33	=33	=33	=33	=33
.	.	.	.	1A	-les-	1e	-les-	1dd	-les-
.	.	.	.	2AA/	-ti-	2e\	-ti-	2cc#X\	-ti-
=33	=34	=34	=34	=34	=34	=34	=34	=34	=34
.	.	.	.	1.D,	-a,	1.f#X,	-a;	1.dd,	-a;
=34	=35	=35	=35	=35	=35	=35	=35	=35	=35
2B-X\	im-	2B-X\	im-	2B-X\	im-	2fn\	im-	2dd\	im-
2A\	-bu-	2A\	-bu-	2c\	-bu-	2f\	-bu-	2ccn\	-bu-
2F\	-ta	2F\	-ta	2c\	-ta	2f\	-ta	2a\	-ta
=35	=36	=36	=36	=36	=36	=36	=36	=36	=36
!	!	!	!	!LO:SIC:v:s=2.B-	!	!	!	!	!
2.G\	fel-	2.G\	fel-	2.B\	fel-	(2.d\	fel-	4b-X\	fel-
.	.	.	.	.	.	.	.	(4a\	.
.	.	.	.	.	.	.	.	4b-\	.
8F\L	.	8F\L	.	8A/L	.	4e\	.	4cc\)	.
8E\J	.	8E\J	.	8G/J	.	.	.	.	.
2D/	-le	2D/	-le	4F/	.	4f\)	.	(4dd\	.
.	.	.	.	4B\	-le	4a\	.	4ff\)	.
=36	=37	=37	=37	=37	=37	=37	=37	=37	=37
2E-X,\	.	2E-X\	de-	2B\	de-	2g,\	le	(4ee\	-le
.	.	.	.	.	.	.	.	4dd\)	.
2F\	de-	2F\	-pu-	2B\	-pu-	2f\	de-	2.cc\	de-
2FF/	-pu-	2FF/	.	2A/	.	2f\	-pu-	.	.
.	.	.	.	.	.	.	.	4cc\	-pu-
=37	=38	=38	=38	=38	=38	=38	=38	=38	=38
1.BB-X,	-tans	1.BB-X	-tans	1.B-X,	-tans	1.f,	-tans,	1.dd	-tans,
!	!	!LO:LB:g=original	!	!	!	!	!	!	!
=38	=39	=39	=39	=39	=39	=39	=39	=39	=39
2D\	per-	2D\	per-	2A/	per-	2f#X\	per-	2dd\	per-
2D\	-ve-	2D\	-ve-	2A/	-ve-	2f#\	-ve-	2dd\	-ve-
2D\	-nit	2D\	-nit	2A/	-nit	2f#\	-nit	2dd\	-nit
=39	=40	=40	=40	=40	=40	=40	=40	=40	=40
1G	ad	1G	ad	(2.B-X\	ad	1g	ad	1b-X	ad
.	.	.	.	8c\L	.	.	.	.	.
.	.	.	.	8d\J)	.	.	.	.	.
2C/	cae-	2C/	cae-	2e-X\	cae-	4a\	cae-	4cc\	cae-
.	.	.	.	.	.	4g\	.	4b-\	.
=40	=41	=41	=41	=41	=41	=41	=41	=41	=41
1D	-les-	1D	-les-	1d	-les-	1g	-les-	1a	-les-
2D\	-ti-	2D\	-ti-	2d\	-ti-	2f#X\	-ti-	2a\	-ti-
=41	=42	=42	=42	=42	=42	=42	=42	=42	=42
(2.G\	-a	(2.G\	-a	1.d	-a	1.g	-a	1.bn	-a
4A\)	.	4A\)	.	.	.	.	.	.	.
4G\	.	4G\	.	.	.	.	.	.	.
4F\	.	4F\	.	.	.	.	.	.	.
*	*	*	*	*custos:e	*	*	*	*	*
!	!	!	!	!LO:LB:g=original	!	!LO:LB:g=original	!	!LO:LB:g=original	!
=42	=43	=43	=43	=43	=43	=43	=43	=43	=43
2E\	per-	2En\	per-	2en\	per-	2g#X\	per-	2bn\	per-
2E\	-ve-	2E\	-ve-	2e\	-ve-	2g#\	-ve-	2b\	-ve-
2AA/	-nit	2AA/	-nit	2c\	-nit	2a\	-nit	2cc\	-nit
=43	=44	=44	=44	=44	=44	=44	=44	=44	=44
2.F\	ad	(2.F\	ad	1c	ad	1fn	ad	1a	ad
4E\	.	4E\	.	.	.	.	.	.	.
2D\	cae-	2D\)	cae-	4d\	cae-	2f\	cae-	(4bn\	cae-
.	.	.	.	4c\	.	.	.	4a\)	.
=44	=45	=45	=45	=45	=45	=45	=45	=45	=45
1E	-les-	1E	-les-	1Bn	-les-	1e	-les-	1a	-les-
2E\	-ti-	2E\	-ti-	2B\	-ti-	2e\	-ti-	2g#X/	-ti-
=45	=46	=46	=46	=46	=46	=46	=46	=46	=46
!	!	!	!	!	!	!	!	!LO:N:vis=0.	!
0.AA;	-a.	0.AA;	-a.	0.c#;X	-a.	0.;e	-a.	0.a;	-a.
!LO:LB:g=original	!	!LO:LB:g=original	!	!	!	!	!	!	!
=46||	=48||	=48||	=48||	=48|	=48||	=48||	=48||	=48||	=48||
*M3/2	*	*M3/2	*	*M3/2	*	*M3/2	*	*M3/2	*
2A\	Pe-	2A\	Pe-	2A/	Pe-	2e\	Pe-	2ccn\	Pe-
2.D/	-nas	2.D/	-nas	2A,/	-nas	(4fn\	-nas	(4dd\	-nas
.	.	.	.	.	.	4e\)	.	4cc\)	.
.	.	.	.	2F/	cu-	(4d\	cu-	(4b\	cu-
4D/	cu-	4D/	cu-	.	.	4c\)	.	4a\)	.
=47	=49	=49	=49	=49	=49	=49	=49	=49	=49
(4E\	-cur-	(4E\	-cur-	(2E/	-cur-	2.B/	-cur-	2.g#X/	-cur-
4F\	.	4F\	.	.	.	.	.	.	.
4E\)	.	4E\)	.	2G#X/	.	.	.	.	.
4D\	.	4D\	.	.	.	(8c/L	.	(8a\L	.
.	.	.	.	.	.	8d/J)	.	8b\J)	.
2C/	.	2C/	.	2A/)	.	2e\	.	2cc\	-rit
=48	=50	=50	=50	=50	=50	=50	=50	=50	=50
2D,\	-rit	2D,\	-rit	2A,/	-rit	2f,\	-rit	2b,\	.
2.E\	for-	2.E\	for-	2.A/	for-	2.e\	for-	2.b\	for-
4E\	-ti-	4E\	-ti-	4G#X/	-ti-	4e\	-ti-	4b\	-ti-
=49	=51	=51	=51	=51	=51	=51	=51	=51	=51
1.AA,	-ter,	1.AA,	-ter,	1.A,	-ter:	1.e,	-ter,	1.cc#X,	-ter,
=50	=52	=52	=52	=52	=52	=52	=52	=52	=52
2A\	et	2A\	et	2A\	et	2e\	et	2ccn\	et
(4A\	suſ-	(4A\	suſ-	2A\	suſ-	2e\	suſ-	2cc\	suſ-
4G\)	.	4G\)	.	.	.	.	.	.	.
2F#X\	-tu-	2F#X\	-tu-	2A\	-tu-	2a\	-tu-	2dd\	-tu-
=51	=53	=53	=53	=53	=53	=53	=53	=53	=53
(2.G\	-lit	(2.G\	-lit	2.Bn\	-lit	2.d\	-lit	2.b\	-lit
4F#X\)	.	4F#X\)	.	4A/	.	8e\L	.	8cc\L	.
.	.	.	.	.	.	8f,\J	.	8dd\J	.
2E\	vi-	2E\	vi-	2G/	vi-	2g\	vi-	4ee\	.
.	.	.	.	.	.	.	.	4e/	.
!	!	!	!	!LO:LB:g=original	!	!LO:LB:g=original	!	!LO:LB:g=original	!
=52	=54	=54	=54	=54	=54	=54	=54	=54	=54
2E\	-ri-	2E\	-ri-	2Bn\	.	1e	-vi-	2g/yy	vi-
2B\	-li-	2B\	-li-	2.B\	-ri-	.	.	2.f#X/	-vi-
2BB/	-ter,	2BB/	-ter,	.	.	2d#X\	-li-	.	.
.	.	.	.	4B\	-li-	.	.	4f#/	-li-
=53	=55	=55	=55	=55	=55	=55	=55	=55	=55
!LO:SIC:v:t=custos A	!	!	!	!	!	!	!	!	!
1.E,	.	1.E,	.	1.B,	-ter;	1.e,	-ter:	1.g#X,	-ter:
*	*	*custos:A	*	*	*	*	*	*	*
!	!	!LO:LB:g=original	!	!	!	!	!	!	!
=54	=56	=56	=56	=56	=56	=56	=56	=56	=56
2A\	Fun-	2A\	Fun-	2c\	fun-	2e\	fun-	2ccn\	Fun-
2E\	-dens-	2E\	-dens-	2B\	-dens-	2g\	-dens-	2ee\	-dens-
(4Fn\	-que	(4Fn\	-que	(4A\	-q(ue)	2fn\	-q(ue)	2dd\	-que
4G\)	.	4G\)	.	4B\)	.	.	.	.	.
=55	=57	=57	=57	=57	=57	=57	=57	=57	=57
2.A\	pro	(2.A\	pro	2.c\	pro	(4e\	pro-	4cc\	pro-
.	.	.	.	.	.	4d\	.	(4b\	.
.	.	.	.	.	.	4e\	.	4cc\)	.
(8G\L	.	8G\L	.	8B\L	.	4f\)	.	4dd\	.
8F\J	.	8F\J)	.	8A\J	.	.	.	.	.
2E\)	.	2E\	.	2G/	.	2g\	.	2ee\	.
=56	=58	=58	=58	=58	=58	=58	=58	=58	=58
2F,\	Te	2F,\	Te	2A/	Te	2fn,\	-Te	2dd,\	-te
2.A\	San-	2.A\	San-	2.A/	San-	2.e\	San-	2dd\	San-
.	.	.	.	.	.	.	.	2cc#X\	-gui-
4AA/	-gui-	4AA/	-gui-	4A/	-gui-	4e\	-gui-	.	.
=57	=59	=59	=59	=59	=59	=59	=59	=59	=59
1D,	-nem,	1D,	-nem,	1A,	-nem	1f#X,	-nem	1dd,	-nem,
2D/	ae-	2D\	ae-	2A/	ae-	2f#\	ae-	2dd\	ae-
!LO:LB:g=original	!	!	!	!	!	!	!	!	!
=58	=60	=60	=60	=60	=60	=60	=60	=60	=60
(2.D\	-ter-	(2.D\	-ter-	2.A/	-ter-	(2.f#X\	-ter-	(2.dd\	-ter-
4D\	.	4D\	.	4A/	.	4g\	.	4ee\	.
4E\)	.	4E\	.	4G/	.	4f#\)	.	4dd\	.
4F\	.	4F\)	.	4A/	.	4e\	.	4cc\)	.
=59	=61	=61	=61	=61	=61	=61	=61	=61	=61
4G\	.	4G\	.	4Bn\	.	2d\	.	2b\	.
4A\	.	(4A\	.	4c\	.	.	.	.	.
4G\	.	4G\	.	4B\	.	2d,\	-na	2b,\	-na
4F\	.	4F\	.	4A\	.	.	.	.	.
4E\	.	4E\)	.	2G/	.	2e\	ae-	2ccn\	ae-
4D\	.	4D\	.	.	.	.	.	.	.
=60	=62	=62	=62	=62	=62	=62	=62	=62	=62
2C/	-na	2C/	-na	2.G,/	-na	2.e\	-ter-	(2.cc\	-ter-
4C,/	.	4C,/	.	.	.	.	.	.	.
4C/	ae-	4C/	ae-	4G/	ae-	4f\	.	4dd\)	.
(4D\	-ter-	4D\	-ter-	4F/	.	4e\	.	4cc\	.
4E\)	.	4E\	.	4G/	-ter-	4d\	.	4b\	.
*	*	*	*	*custos:A	*	*	*	*custos:a	*
!	!	!	!	!LO:LB:g=original	!	!	!	!LO:LB:g=original	!
=61	=63	=63	=63	=63	=63	=63	=63	=63	=63
2.F\	.	2.F\	.	2.A\	.	2.c/	-na	2.a\	-na
4G,\	-na	4G\	-na	4B\	-na	4B/	.	4g\	.
2A\	do-	2A\	do-	2c\	do-	2A/	do-	2cc\	do-
*	*	*	*	*	*	*custos:f	*	*	*
!	!	!	!	!	!	!LO:LB:g=original	!	!	!
=62	=64	=64	=64	=64	=64	=64	=64	=64	=64
2D,/	-na	2D,\	-na	4d\	-na	2fn,\	-na	2a,\	-na
.	.	.	.	4c\	.	.	.	.	.
2.E\	poſ-	2.E\	poſ-	2.Bn\	poſ-	2.e\	poſ-	2a\	poſ-
.	.	.	.	.	.	.	.	2g#X/	-si-
4E\	-si-	4EE/	-si-	4B\	-si-	4e\	-si-	.	.
=63	=65	=65	=65	=65	=65	=65	=65	=65	=65
!	!	!	!	!	!	!	!	!LO:N:vis=0.	!
0.AA;	-det.	0.AA;	-det.	0.c#X;	-det.	0.e;	-det.	0.a	-det.
*	*	*custos:D	*	*custos:A	*	*custos:f#	*	*custos:dd	*
!	!	!LO:TX:b:t=Vertat(ur)	!	!	!	!	!	!LO:TX:a:t=Vertat(ur)	!
!	!	!LO:PB:g=original	!	!LO:PB:g=original	!	!LO:PB:g=original	!	!LO:PB:g=original	!
=64||	=67||	=67||	=67||	=67||	=67||	=67||	=67||	=67||	=67||
*M3/2	*	*M3/2	*	*M3/2	*	*M3/2	*	*M3/2	*
2D\	Ob	2D\	Ob	2A/	Ob	2f#X,\	Ob	2dd\	Ob
2D\	hoc	2D\	hoc	2A/	hoc	2f#,\	hoc	2dd\	hoc
2D\	pre-	2D\	pre-	2A/	pre-	2f#\	pre-	2dd\	pre-
=65	=68	=68	=68	=68	=68	=68	=68	=68	=68
1G	-ca-	1G	-ca-	1Bn	-ca-	1g	-ca-	1dd	-ca-
2GG/	-tu	2G\	-tu	2B\	-tu	2g\	-tu	2dd\	-tu
=66	=69	=69	=69	=69	=69	=69	=69	=69	=69
2.C/	sup-	2.C/	sup-	2.Gn/	Sup-	2.e\	Sup-	2.ccn\	sup-
4C/	-pi-	4C/	-pi-	4G/	-pli-	4e\	-pli-	4cc\	-pli-
2C/	-ci,	2C/	-ci	2G/	-ci	2e,\	-ci	2cc\	-ci
=67	=70	=70	=70	=70	=70	=70	=70	=70	=70
2F\	Te	2F\	Te	2A\	Te	2fn\	Te	(4cc\	Te
.	.	.	.	.	.	.	.	4b\	.
2A\	poſ-	2A\	pos-	2c\	pos-	2f\	pos-	4a\	.
.	.	.	.	.	.	.	.	4b\)	.
2F\	-ci-	2F\	-ci-	2A/	-ci-	2f\	-ci-	(4cc\	po-
.	.	.	.	.	.	.	.	4ff\)	.
=68	=71	=71	=71	=71	=71	=71	=71	=71	=71
1B-X,	-mus	1B-X	-mus	(2F/	-mus	(2d\	-mus	2dd\	-ssi-
.	.	.	.	2G/)	.	2en\)	.	2b-X,\	-m(us)
2A\	pi-	2A\	pi-	2A/	pi-	2f\	pi-	2cc\	pi-
=69	=72	=72	=72	=72	=72	=72	=72	=72	=72
1G	-iſ-	1G	-iſ-	2d\	-iſ-	1f	-iſ-	1b-X	-iſ-
.	.	.	.	2.G/	-si-	.	.	.	.
2G\	-si-	2G\	-si-	.	.	2e\	-si-	2b-\	-si-
.	.	.	.	4G/	-me	.	.	.	.
=70	=73	=73	=73	=73	=73	=73	=73	=73	=73
1.F,	-me.	1.F,	-me.	1.A	.	1.f,	-me	1.cc,	-me.
*	*	*	*	*custos:f	*	*	*	*	*
!LO:LB:g=original	!	!	!	!LO:LB:g=original	!	!	!	!	!
=71||	=74||	=74||	=74||	=74||	=74||	=74||	=74||	=74||	=74||
!	!	!	!	!LO:TX:a:t=F.	!	!LO:TX:a:t=F.	!	!LO:TX:a:t=F.	!
00.r	.	00.r	.	2f\	In	2a\	In	2cc\	In
.	.	.	.	2en\	hoc	2g\	hoc	2cc\	hoc
.	.	.	.	2c\	Tri-	2e\	Tri-	(4cc\	Tri-
.	.	.	.	.	.	.	.	4b-X\)	.
=72	=75	=75	=75	=75	=75	=75	=75	=75	=75
.	.	.	.	2.d\	-um-	(4f\	-um-	(4a\	-um-
.	.	.	.	.	.	4c\	.	4g\	.
.	.	.	.	.	.	4d\	.	4a\	.
.	.	.	.	8c\L	.	4e\)	.	4b\)	.
.	.	.	.	8B\J	.	.	.	.	.
.	.	.	.	2A/	-pho	[2f\	-pho	2cc\	-pho,
*	*	*	*	*	*	*	*	*custos:b-	*
!	!	!	!	!	!	!LO:LB:g=original	!	!LO:LB:g=original	!
=73	=76	=76	=76	=76	=76	=76	=76	=76	=76
.	.	.	.	2B-X\	Mar-	2f,\]	.	4b-X\	Mar-
.	.	.	.	.	.	.	.	4a\	.
.	.	.	.	2c\	-ty-	2f\	Mar-	2.g/	-ty-
.	.	.	.	2C/	.	2e\	-ty-	.	.
.	.	.	.	.	.	.	.	4g/	.
=74	=77	=77	=77	=77	=77	=77	=77	=77	=77
.	.	.	.	1.F,	-ris:	1.f	-ris,	1.a,	-ris
=75	=78	=78	=78	=78	=78	=78	=78	=78	=78
00.r	.	00.r	.	2F/	di-	2a\	di-	2cc\	di-
.	.	.	.	2A/	-mit-	2fn\	-mit-	2a\	-mit-
.	.	.	.	2F/	-te	2a\	-te	2cc\	-te
=76	=79	=79	=79	=79	=79	=79	=79	=79	=79
.	.	.	.	(2.B-X\	no-	2f\	no-	1dd	no-
.	.	.	.	.	.	(4e\	.	.	.
.	.	.	.	4A\)	.	4f\)	.	.	.
.	.	.	.	2G/	-xam	2g\	-xam	(4een\	-xam
.	.	.	.	.	.	.	.	4dd\)	.
=77	=80	=80	=80	=80	=80	=80	=80	=80	=80
.	.	.	.	1A	Ser-	1e	Ser-	1dd	Ser-
.	.	.	.	2A\	-vu-	2e\	-vu-	2cc#X\	-vu-
=78	=81	=81	=81	=81	=81	=81	=81	=81	=81
.	.	.	.	1.D	-lis.	1.f#X,	-lis.	1.dd,	-lis.
*	*	*	*	*custos:B-	*	*	*	*	*
!	!	!	!	!LO:LB:g=original	!	!	!	!	!
=79||	=82||	=82||	=82||	=82||	=82||	=82||	=82||	=82||	=82||
2B-X,\	In	2B-X\	In	2B-X\	In	2fn\	In	(2dd\	In
2A,\	hoc	2A\	hoc	2c\	hoc	2f\	hoc	2cc\)	.
2F\	Tri-	2F\	Tri-	2c\	Tri-	2f\	.	2a\	hoc
=80	=83	=83	=83	=83	=83	=83	=83	=83	=83
2.G\	-um-	2.G\	-um	2.B-X/	-um-	(2.d\	Tri-	(4b-X\	Tri-
.	.	.	.	.	.	.	.	4a\	.
.	.	.	.	.	.	.	.	4b-\	.
8F\L	.	4F\	.	8A/L	.	4e\	.	4cc\	.
8E\J	-pho	.	.	8G/J	.	.	.	.	.
!	!	!LO:LB:g=original	!	!	!	!	!	!	!
2D/	.	2ryy	.	4F/	-pho	4f\)	.	4dd\)	-um-
.	.	.	.	[4B-/	.	4a\	-um-	4ff\	.
=81	=84	=84	=84	=84	=84	=84	=84	=84	=84
2E-X,\	.	2E-X\	Mar-	2B-,\]	.	2g,\	-pho	(4ee-X\	-pho
.	.	.	.	.	.	.	.	4dd\)	.
2F\	Mar-	2F\	.	2B-X\	Mar-	2f\	Mar-	2.cc\	Mar-
2FF/	-ty-	2FF/	-ty-	2A/	-ty-	2f\	-ty-	.	.
.	.	.	.	.	.	.	.	4cc\	-ty-
=82	=85	=85	=85	=85	=85	=85	=85	=85	=85
1.BB-X,	-ris,	1.BB-X	-ris,	1.B-X,	-ris	1.f	-ris	1.dd	-ris
*	*	*	*	*	*	*	*	*custos:dd	*
!	!	!	!	!	!	!LO:LB:g=original	!	!LO:LB:g=original	!
=83	=86	=86	=86	=86	=86	=86	=86	=86	=86
2D\	di-	2D\	di-	2A/	di-	2f#X\	di-	2dd\	di-
2D\	-mit-	2D\	-mit-	2A/	-mit-	2f#\	-mit-	2dd\	-mit-
2D\	-te	2D\	-te	2A/	-te	2f#\	-te	(4dd\	-te
.	.	.	.	.	.	.	.	4cc\)	.
=84	=87	=87	=87	=87	=87	=87	=87	=87	=87
1G	no-	1G	no-	(2.B-X\	no-	1g	no-	1b-X	no-
.	.	.	.	8c\L	.	.	.	.	.
.	.	.	.	8d\J)	.	.	.	.	.
2C/	-xam	2C/	-xam	2e-X\	-xam	4a\	-xam	(4cc\	-xam
.	.	.	.	.	.	4g\	.	4b-\)	.
=88	=88	=88	=88	=88	=88	=88	=88	=88	=88
1D	Ser-	1D	Ser-	1d	Ser-	1g	Ser-	1a	Ser-
2D\	-qu-	2D\	-qu-	2d\	-vu-	2f#X\	-vu-	2a\	-vu-
=85	=89	=89	=89	=89	=89	=89	=89	=89	=89
(2.G\	-lis	(2.G\	-lis	1.d	-lis.	1.g,	-lis,	1.bn,	-lis,
4A\)	.	4A\)	.	.	.	.	.	.	.
4G\	.	4G\	.	.	.	.	.	.	.
4F\	.	4F\	.	.	.	.	.	.	.
*	*	*	*	*custos:e	*	*	*	*	*
!	!	!	!	!LO:LB:g=original	!	!	!	!	!
=86	=90	=90	=90	=90	=90	=90	=90	=90	=90
2En\	di-	2En\	di-	2en\	di-	2g#X\	di-	2bn\	di-
2E\	-mit-	2E\	-mit-	2e\	-mit-	2g#\	-mit-	2b\	-mit-
2AA/	-te	2AA/	-te	2c\	-te	2a\	-te	2ccn\	-te
=87	=91	=91	=91	=91	=91	=91	=91	=91	=91
(2.F\	no-	(2.F\	no-	1c	nox-	1fn	no-	1a	no-
4E\)	.	4E\	.	.	.	.	.	.	.
2D/	-xam	2D/)	-xam	(4d\	-am	2f\	-xam	(4bn\	-xam
.	.	.	.	4c\)	.	.	.	4a\)	.
=88	=92	=92	=92	=92	=92	=92	=92	=92	=92
1E	Ser-	1E	Ser-	1Bn	Ser-	1e	Ser-	1a	Ser-
2E\	-vu-	2E\	-vu-	2B\	-vu-	2e\	-vu-	2g#X/	-vu-
=89	=93	=93	=93	=93	=93	=93	=93	=93	=93
!LO:N:vis=0.	!	!LO:N:vis=0.	!	!	!	!LO:N:vis=0.	!	!	!
1.AA;	-lis.	1.AA;	-lis.	1.c#X	-lis.	1.e;	-lis	1.a	-lis.
!LO:TX:b:t=Vertat(ur)	!	!LO:LB:g=original	!	!	!	!	!	!LO:LB:g=original	!
!LO:PB:g=original	!	!	!	!	!	!	!	!	!
=90||	=94||	=94||	=94||	=94||	=94||	=94||	=94||	=94||	=94||
*M3/2	*	*M3/2	*	*M3/2	*	*M3/2	*	*M3/2	*
2A\	Laus	2A\	Laus	2A/	Laus	2e\	Laus	2ccn\	Laus
2.D/	et	2.D/	et	2A/	et	(4f\	et	(4dd\	et
.	.	.	.	.	.	4e\)	.	4cc\)	.
.	.	.	.	2F/	per-	(4d\	pa-	(4b\	pa-
4D/	pe-	4D/	pe-	.	.	4c\)	.	4a\)	.
=91	=95	=95	=95	=95	=95	=95	=95	=95	=95
4E\	-ren-	(4E\	-ren-	(2E/	-ren-	2.B/	-ren-	2.g#X/	-ren-
4F\	.	4F\	.	.	.	.	.	.	.
4E\	.	4E\)	.	2G#X/)	.	.	.	.	.
4D\	.	4D\	.	.	.	(8c\L	.	(8a\L	.
.	.	.	.	.	.	8d\J)	.	8b\J)	.
2C/	.	2C/	-nis	[2A/	-nis	2e\	.	2cc\	.
=92	=96	=96	=96	=96	=96	=96	=96	=96	=96
2D,\	-nis	2D\	.	2A,/]	.	2f,\	-nis	2b,\	-nis
2.E\	glo-	2.E\	glo-	2A/	Glo-	2.e\	glo-	2.b\	glo-
.	.	.	.	2G#X/	-ri-	.	.	.	.
4E\	-ri-	4EE/	-ri-	.	.	4e\	-ri-	4b\	-ri-
=93	=97	=97	=97	=97	=97	=97	=97	=97	=97
1.AA,	-a	1.AA	-a	1.A	-a	1.e	-a	1.cc#X,	-a
*	*	*	*	*custos:A	*	*	*	*	*
!	!	!	!	!LO:LB:g=original	!	!LO:LB:g=original	!	!	!
=94	=98	=98	=98	=98	=98	=98	=98	=98	=98
2A\	Pa-	2A\	Pa-	2A/	Pa-	2e\	Pa-	2ccn\	Pa-
(4A\	-tri	(4A\	-tri	2A/	-tri	2e\	-tri	2cc\	-tri
4G\)	.	4G\)	.	.	.	.	.	.	.
2F#X\	sit	2F#X\	sit	2A/	sit	2a\	sit	2dd\	sit
=95	=99	=99	=99	=99	=99	=99	=99	=99	=99
(2.G\	at-	(2.G\	at-	(2.Bn/	at-	(2.d\	at-	2.b\	at-
4F\)	.	4F\)	.	4A/)	.	8e\L	.	(8cc\L	.
.	.	.	.	.	.	8f\J)	.	8dd\J)	.
2E\	-que	2E\	-que	2G/	-que	2g\	-que	4ee\	.
.	.	.	.	.	.	.	.	4e/	.
=96	=100	=100	=100	=100	=100	=100	=100	=100	=100
2E,\	.	2E\	.	2Bn,\	.	1e	Fi-	2g,/	-que
2B\	Fi-	2B\	Fi-	2.B\	Fi-	.	.	2.f#X/	Fi-
2BB/	-li-	2BB/	-li-	.	.	2d#X\	-li-	.	.
.	.	.	.	4B\	-li-	.	.	4f#/	-li-
=97	=101	=101	=101	=101	=101	=101	=101	=101	=101
1.E,	-o	1.E	-o	1.B	-o	1.e,	-o:	1.g#,	-o
*	*	*	*	*	*	*	*	*custos:cc	*
!	!	!LO:LB:g=original	!	!	!	!	!	!LO:LB:g=original	!
=98	=102	=102	=102	=102	=102	=102	=102	=102	=102
2A\	San-	2A\	San-	2c\	San-	2e\	San-	2ccn\	San-
2E\	cto	2E\	cto	2Bn\	-cto	2g\	-cto	2ee\	-cto
(4Fn\	si-	(4Fn\	si-	(4A\	si-	2fn\	si-	2dd\	.
4G\)	.	4G\)	.	4B\)	.	.	.	.	.
=99	=103	=103	=103	=103	=103	=103	=103	=103	=103
2.A\	-mul	(2.A\	-mul	2.c\	-mul	4e\	-mul	(4cc\	Si-
.	.	.	.	.	.	(4d\	.	4b\	.
.	.	.	.	.	.	4e\)	.	4cc\	.
8G\L	.	8G\L	.	8B\L	.	4f\	.	4dd\)	-mul
8F\J	.	8F\J)	.	8A\J	.	.	.	.	.
2E\	Pa-	2E\	Pa-	2G,/	.	2g\	.	2ee\	.
!LO:LB:g=original	!	!	!	!	!	!	!	!	!
=100	=104	=104	=104	=104	=104	=104	=104	=104	=104
2F\	-ra-	2F\	-ra-	2A\	Pa-	2fn\	Pa-	2dd\	Pa-
2.A\	-cli-	2.A\	-cli-	2.A\	-ra-	2.e\	-ra-	2dd\	-ra-
.	.	.	.	.	.	.	.	2cc#X\	-vli-
4AA/	-to	4AA/	-to	4A\	-cli-	4e\	-cli-	.	.
=101	=105	=105	=105	=105	=105	=105	=105	=105	=105
1D,	.	1D,	.	1A,	-to	1f#X,	-to	1dd,	-to,
2D/	in	2D/	in	2A/	in	2f#\	in	2dd\	in
=102	=106	=106	=106	=106	=106	=106	=106	=106	=106
(2.D\	sem-	2.D/	sem-	2.A/	Sem-	(2.f#X\	sem-	(2.dd\	Sem-
4D\	.	4D/	-pi-	4A/	-pi-	4g\)	.	4ee\)	.
4E\)	.	(4E\	-ter-	4G/	-ter-	(4f#\	-pi-	4dd\	-pi-
4F\	-pi-	4F\)	.	4A/	.	4e\)	.	4cc\	.
!	!	!	!	!LO:LB:g=original	!	!	!	!	!
=103	=107	=107	=107	=107	=107	=107	=107	=107	=107
4G\	-ter-	4G\	.	4B\	.	2d\	-ter-	2bn\	-ter-
(4A\	.	4A\	.	(4c\	.	.	.	.	.
4G\	.	(4G\	.	4B\	.	2d,\	-na	2b,\	-na
4F\)	.	4F\)	.	4A\)	.	.	.	.	.
4E\	.	4E\	.	2G/	.	2e\	in	2cc\	in
4D\	.	4D/	.	.	.	.	.	.	.
!	!	!	!	!	!	!LO:LB:g=original	!	!	!
=104	=108	=108	=108	=108	=108	=108	=108	=108	=108
2C/	-na	2C/	-na	2G/	-na	2.e\	sem-	(2.cc\	ſem-
4C,/	.	4C,/	.	4G,/	.	.	.	.	.
4C/	in	4C/	in	4G/	in	4f\	-pi-	4dd\)	.
4D\	.	4D\	.	4F/	sem-	4e\	.	4cc\	-pi-
4E\	sem-	4E\	sem-	4G/	-pi-	4d\	.	4b\	.
=105	=109	=109	=109	=109	=109	=109	=109	=109	=109
(2.F\	-pi-	2.F\	-pi-	(2.A\	-ter-	2.c/	.	2.a\	-ter-
4G\)	.	4G\	-ter-	4B\	.	4B/	-ter-	4g\	.
2A\	-ter-	2A\	-na	2c\)	.	2A/	.	2cc\	-na
=106	=110	=110	=110	=110	=110	=110	=110	=110	=110
2D,\	-na	2D,\	.	(4d\	-na	2f,\	-na	2a,\	.
.	.	.	.	4c\)	.	.	.	.	.
2.E\	sae-	2.E\	sae-	2.B\	Sae-	2.e\	sae-	2a\	sae-
.	.	.	.	.	.	.	.	2g#X/	-cu-
4E\	-cu-	4EE/	-cu-	4B\	-cu-	4e\	-cu-	.	.
=107	=111	=111	=111	=111	=111	=111	=111	=111	=111
1.AA	-la	1.AA	-la	1.c#X	-la	1.e	-la	1.a	-la
!	!	!	!	!	!	!	!	!LO:LB:g=original	!
=108||	=112||	=112||	=112||	=112||	=112||	=112||	=112||	=112||	=112||
0.D	a-	0.D	a-	0.d	a-	0.f	a-	0.a	A-
=109	=113	=113	=113	=113	=113	=113	=113	=113	=113
!	!	!LO:TX:b:t=O ad M.D.G	!	!LO:TX:b:t=O ad M.D.G	!	!LO:TX:b:t=O ad M D.G	!	!	!
0.AA;	-men.	0.AA;	-men.	0.c#X;	-men.	0.e	-men.	0.a	-men.
==	==	==	==	==	==	==	==	==	==
*-	*-	*-	*-	*-	*-	*-	*-	*-	*-
!!!system-decoration: [(s1,s2,s3,s4,s5)]
!!!ENC: Andrzej Gręziak
!!!END: 2024-06-06
!!!ENC: Leszek Kubiak
!!!END: 2024-06-23
